X:6
T:GB/7a/6 'Twas of a Brisk and Lively Lad-0
%%VWML:GB-7a-6-0
F:http://www.vwml.org/record/GB/7a/6
T:Version 2 of 3
C:Mr. Cranstone (c. 50) and Mrs. Cranstone (see GB/7a/3), Billingshurst VI. 07
C:Transcribed by Simon Furey and Lewis Jones
L:1/8
M:4/4
I:linebreak $
K:A
A2 | d3 d c2 B2 | c2 AG F2 z c | d2 BG A2 BG | E4 EFGE |$ A3 F G2 A2 |"^(a)" B4 c2 e2 | d2 c2 B2 B2 | A6 |]"^(a) var." B2 cB A2 ce |

